assets/images/afrikons/smiley.svg

<svg viewBox="0 0 50 50" xmlns="http://www.w3.org/2000/svg"><g fill="none"><path d="m36.84 33.17-3.08-3.17a12.58 12.58 0 0 1 -17.52 0l-3.08 3.16a17 17 0 0 0 23.68 0z"/><path d="m18.83 19.33v-4.41a17.89 17.89 0 0 0 -7.66 1.71l1.89 4a13.48 13.48 0 0 1 5.77-1.3z"/><path d="m31.17 19.33a13.4 13.4 0 0 1 5.76 1.29l1.89-4a17.82 17.82 0 0 0 -7.65-1.71z"/></g><path d="m42.68 7.32a25 25 0 1 0 -35.36 35.35 25 25 0 0 0 42.68-17.67 24.84 24.84 0 0 0 -7.32-17.68zm-23.85 7.6v4.41a13.48 13.48 0 0 0 -5.77 1.29l-1.89-4a17.89 17.89 0 0 1 7.66-1.7zm-2.59 15.08a12.58 12.58 0 0 0 17.52 0l3.08 3.16a17 17 0 0 1 -23.68 0zm20.69-9.39a13.4 13.4 0 0 0 -5.76-1.29v-4.4a17.82 17.82 0 0 1 7.65 1.71z"/></svg>

<svg xmlns="http://www.w3.org/2000/svg" viewBox="0 0 50 50"><defs><style>.cls-1{fill:none;}</style></defs><title>smiley</title><g id="Layer_2" data-name="Layer 2"><g id="Layer_1-2" data-name="Layer 1"><path class="cls-1" d="M36.84,33.17,33.76,30a12.58,12.58,0,0,1-17.52,0l-3.08,3.16a17,17,0,0,0,23.68,0Z"/><path class="cls-1" d="M18.83,19.33V14.92a17.89,17.89,0,0,0-7.66,1.71l1.89,4A13.48,13.48,0,0,1,18.83,19.33Z"/><path class="cls-1" d="M31.17,19.33a13.4,13.4,0,0,1,5.76,1.29l1.89-4a17.82,17.82,0,0,0-7.65-1.71Z"/><path d="M42.68,7.32A25,25,0,1,0,7.32,42.67,25,25,0,0,0,50,25,24.84,24.84,0,0,0,42.68,7.32Zm-23.85,7.6v4.41a13.48,13.48,0,0,0-5.77,1.29l-1.89-4A17.89,17.89,0,0,1,18.83,14.92ZM16.24,30a12.58,12.58,0,0,0,17.52,0l3.08,3.16a17,17,0,0,1-23.68,0Zm20.69-9.39a13.4,13.4,0,0,0-5.76-1.29V14.92a17.82,17.82,0,0,1,7.65,1.71Z"/></g></g></svg>
